X:615
T:Bottom of the Punch Bowl
C:Joe Buchanan's Scottish Tome - Page 180.3
I:180 3
C:Ronnie Cooper
Z:Carl Allison
R:Reel
L:1/8
M:4/4
K:D
(FE) | D2 D2 d2>e2 | d2 D2 FGAF | E2 e2 efgf | edcB AGFE |
D2 D2 d2>e2 | fedc d2>A2 | Bc d2 A2>G2 | F2 D2 D3 :|
(de) | fedB ABde | fdc d2>A2 | B2 e2 e2 (de) | f2 e2 e2 de |
fedB ABde | faef d2 A2 | BcdB ABAG | F2 D2 D2 :|

